X: 15
T: Raking Red Haired Pat
M: 2/4
L: 1/8
B: "O'Neill's 15"
N: "Tenderly" "collected by J. Ryan"
Z: "Transcribed by Norbert Paap, norbertp@bdu.uva.nl"
K:Gm
d/2-c/2|BB ABAG|A-d cA|GG A-B|c-A F3/2G/4A/4|
.B.B ABAG|A-d 3cAG|.A.A .G.G|G3 :||
D|G-A B-c|d-e f-d|g-f e-c|d-B GD|
G-A B-c|d-e f-d|g-f e-c|d2 3def|
g.-f e-g|f-e d-c|B-G A-B|c-A F3/2G/4A/4|
.B.B ABAG|A-d 3cAG|.A.A .G.G|G3||
